public/images/icon-relations.svg

<?xml version="1.0" encoding="UTF-8"?>
<svg width="51px" height="56px" viewBox="0 0 51 56" version="1.1" xmlns="http://www.w3.org/2000/svg" xmlns:xlink="http://www.w3.org/1999/xlink">
    <g id="Page-1" stroke="none" stroke-width="1" fill="none" fill-rule="evenodd">
        <g id="icon-relaties" transform="translate(-6.000000, -4.000000)">
            <g id="Box">
                <rect id="Rectangle-path" x="0" y="0" width="64" height="64"></rect>
            </g>
            <g id="Icon" transform="translate(6.000000, 4.000000)" fill="#000000">
                <path d="M42,38 C39.9547,38 38.075,38.6902 36.5635,39.8396 L17.9216,29.1293 C17.9681,28.7585 18,28.3834 18,28 C18,25.8735 17.2583,23.9226 16.0251,22.3824 C16.1131,22.3023 16.3342,22.2875 16.5429,22.4196 C16.9206,22.6586 18.3223,23.6932 19.866,25.8205 L36.5785,16.1716 C38.0875,17.3142 39.9614,18 42,18 C43.1811173,18 44.3090911,17.77248 45.3424872,17.3588781 C48.6580231,16.0318828 51,12.7894065 51,9 C51,4.0294 46.9706,0 42,0 C37.0295,0 33,4.0294 33,9 C33,9.377 33.0306,9.7462 33.0756,10.111 L14.4613,20.8581 C12.9457,19.6974 11.0565,19 9,19 C4.0295,19 0,23.0294 0,28 C0,32.9705 4.0295,37 9,37 C11.0319,37 12.9001,36.3186 14.4066,35.1829 L33.0727,45.9078 C33.0292,46.2665 33,46.6295 33,47 C33,51.9705 37.0295,56 42,56 C46.9706,56 51,51.9705 51,47 C51,42.0294 46.9706,38 42,38 Z" id="Shape" fill-rule="nonzero"></path>
                <rect id="Rectangle" x="39" y="16" width="6" height="27"></rect>
            </g>
        </g>
    </g>
</svg>

<svg aria-hidden="true" focusable="false" role="img" width="51" height="56" xmlns="http://www.w3.org/2000/svg"><g fill="none"><path d="M-6-4h64v64H-6z"/><g fill="#000"><path d="M42 38c-2.045 0-3.925.69-5.437 1.84L17.922 29.13c.046-.371.078-.747.078-1.13a8.956 8.956 0 0 0-1.975-5.618c.088-.08.31-.095.518.038.378.239 1.78 1.273 3.323 3.4l16.712-9.648A8.948 8.948 0 0 0 42 18c1.181 0 2.31-.228 3.342-.641A9 9 0 1 0 33 9c0 .377.03.746.076 1.111L14.46 20.858A8.95 8.95 0 0 0 9 19a9 9 0 0 0 0 18c2.032 0 3.9-.681 5.407-1.817l18.666 10.725A9.047 9.047 0 0 0 33 47a9 9 0 1 0 9-9z"/><path d="M39 16h6v27h-6z"/></g></g></svg>
